X:1
T:[ID 1-83a]
T:[ID 1-83a]
T:Bezeichnung standardisiert: Boure Bure
T:Urheber unbekannt Datum in der hier transkribierten schriftlichen Quelle: vermutlich vor 1767
C:Urheber unbekannt
C:Datum in der hier transkribierten schriftlichen Quelle: vermutlich vor 1767
L:1/8
M:2/4
K:A
V:1 treble 
V:1
 e/a/g/f/ e/a/g/f/ | e/a/g/f/ e2 | dd/B/cc/A/ | BB/G/ A2 :: dd/B/ cc/A/ | BB/G/ A2 | %6
 e/a/g/f/ e/a/g/f/ | e/a/g/f/ e2 | dd/B/ cc/A/ | BB/G/ A2 :| %10

